src/topics/icons/bower.svg

<svg height="225" preserveAspectRatio="xMidYMid" viewBox="0 0 256 225" width="256" xmlns="http://www.w3.org/2000/svg"><path d="m250.862897 110.127448c-13.125518-12.6118618-78.758069-20.4849652-99.467587-22.7768273 1.003035-2.3691035 1.857104-4.8193104 2.562207-7.3423448 2.823173-1.2364138 5.870897-2.3867587 9.021793-3.3473104.384 1.1326897 2.192552 5.4725517 3.223173 7.5321379 41.643586 1.1486897 43.781517-30.9467586 45.47531-39.7395862 1.656276-8.5975172 1.571862-16.9048275 15.856-32.0915862-21.280552-6.20137928-51.883586 9.6115862-62.134069 33.1475862-3.852138-1.4433103-7.712552-2.5092413-11.531034-3.1685517-2.736552-11.0377931-16.98538-41.78924136-54.3768279-41.78924136-47.3417931 0-98.94013796 39.05599996-98.94013796 105.17020686 0 55.575172 37.94317246 104.279724 59.38096556 104.279724 9.3622069 0 17.4157241-7.010758 19.3064827-13.295448 1.5851035 4.308965 6.4485517 17.704827 8.0457931 21.115034 2.3608276 5.042759 13.2788965 9.406345 18.0568275 4.173242 6.143448 3.412965 17.415724 5.468689 23.559724-3.633104 11.831724 2.502621 22.291862-4.552827 22.520276-12.971586 5.805793-.310069 8.653793-8.461793 7.385931-14.953931-.934621-4.779586-10.918069-21.929931-14.812138-27.849931 7.70869 6.270345 27.234759 8.045241 29.606069.003862 12.42869 9.755586 31.797517 4.635035 33.333517-3.298759 15.101794 3.923863 32.423173-4.694068 29.579035-15.131586 24.260965-1.677793 21.155862-27.490758 14.34869-34.032z" fill="#543729"/><path d="m183.311448 55.0758621c5.22538-10.3674483 11.791449-21.6877242 20.084966-28.6913104-9.128276 3.6788966-18.14069 14.6764138-23.469242 26.4308966-2.716138-1.7263449-5.473655-3.2662069-8.254344-4.6129655 7.433379-15.8664828 24.705655-29.1172414 43.740689-30.1522759-12.749793 11.5630345-8.224 35.5961379-18.706758 48.3188965-2.999725-3.0129655-9.887449-8.8275862-13.395311-11.2932413zm-8.241655 16.8822069c.005517-.3966897.153931-3.4571035.432552-4.854069-.731035-.1721379-5.275035-1.0609655-7.644138-1.0052414-.17269 2.9754483 1.250207 8.0375173 2.656552 11.0846897 9.685517-.2030345 16.681379-3.1034483 20.798896-5.7699311-3.505655-1.6342069-9.487448-3.0868965-14.035862-3.955862-.507586 1.049931-1.75669 3.7252414-2.208 4.5004138z" fill="#00acee"/><path d="m139.080276 153.98069.009931.046344c-1.227586-2.641655-2.53131-5.850482-4.088276-10.044689 6.062345 8.824276 25.062621 4.273103 24.066207-3.634207 9.299862 6.997517 28.443034-1.165793 24.091034-10.977655 9.315862 4.340965 19.94869-4.39338 17.564138-8.199173 15.882483 3.063173 31.102897 6.116414 35.880828 7.339035-3.174069 5.175172-10.402759 8.829793-21.29931 6.290207 5.888 8.020965-5.543725 17.643586-21.466483 12.343724 3.505103 7.874207-10.672 14.96331-26.785104 6.755862.20469 7.877517-19.989517 8.784552-27.972965.080552zm31.506207-39.816276c18.433655 1.415172 48.917517 4.163862 67.789793 6.804965-1.192276-6.141793-4.449104-7.896276-14.694069-10.648276-11.018483 1.175173-38.97269 3.921104-53.095724 3.843311z" fill="#2baf2b"/><path d="m159.068138 140.348138c9.299862 6.997517 28.443034-1.165793 24.091034-10.977655 9.315862 4.340965 19.94869-4.39338 17.564138-8.199173-18.777379-3.620413-38.481103-7.254069-42.95062-7.889103 2.711172.144 7.204965.451862 12.813793.882759 14.123586.077793 42.077793-2.668138 53.095724-3.843311-17.840552-4.523586-54.265379-11.1249653-79.42069-12.7514481-1.165793 1.7037241-3.308689 4.5931031-7.041103 7.6634481-11.005793 23.286621-30.946759 38.765242-53.0102071 38.765242-6.4297931 0-13.6237241-1.08469-21.6871724-3.662345-5.0284138 5.387034-26.4678621 9.469241-43.8637242.930758 13.7986207 32.310069 45.7986207 53.878069 81.2198621 53.878069 29.8317246 0 43.0598616-30.462896 40.1649656-38.523034-.702345-1.956966-3.485793-8.445793-5.04331-12.639448 6.063448 8.823724 25.063172 4.272551 24.06731-3.634759z" fill="#ffcc2f"/><path d="m140.989241 79.0388966c2.633931-1.4328276 11.736276-6.950069 20.409931-9.0234483-.136827-.9605517-.24-1.9293793-.304-2.9037242-5.690482 1.3627587-16.418758 5.9608276-22.56662-.3757241 12.970482 3.913931 19.44662-3.4874483 28.979862-3.4874483 5.680552 0 13.786483 1.5867586 20.176 4.0954483-5.139311-4.7475862-21.992276-19.0758621-42.858483-19.1255172-4.658759 5.648-9.694345 17.8824827-3.83669 30.8204138z" fill="#cecece"/><path d="m62.5230345 140.336552c8.0634483 2.577655 15.2573793 3.662345 21.6871724 3.662345 22.0634481 0 42.0038621-15.479173 53.0102071-38.765242-8.140138 6.795035-22.287448 12.609104-44.3812416 12.609104 19.6794486-4.462345 36.6206896-14.269242 45.2386206-28.6041383-6.057931-9.641931-12.628414-30.9726897 4.010483-47.8355862-2.559448-8.2228966-15.017379-29.9299311-42.5964139-29.9299311-48.1302069 0-88.0182069 40.2742069-88.0182069 94.2482756 0 12.776828 2.5793103 24.759724 7.1862069 35.54538 17.3953103 8.539034 38.8347586 4.456827 43.8631724-.930207z" fill="#ef5734"/><path d="m76.9633103 58.1555862c0 12.2769655 9.9525518 22.2306207 22.230069 22.2306207 12.2775177 0 22.2311727-9.9536552 22.2311727-22.2306207 0-12.2775172-9.953655-22.2306207-22.2311727-22.2306207-12.2775172 0-22.230069 9.9531035-22.230069 22.2306207z" fill="#ffcc2f"/><path d="m85.8835862 58.1555862c0 7.350069 5.9597241 13.3092414 13.3092414 13.3092414 7.3511724 0 13.3097934-5.9591724 13.3097934-13.3092414 0-7.3506207-5.958069-13.3097931-13.3097934-13.3097931-7.3495173 0-13.3092414 5.9591724-13.3092414 13.3097931z" fill="#543729"/><ellipse cx="99.192828" cy="52.249931" fill="#fff" rx="7.755586" ry="4.822069"/></svg>

<?xml version="1.0" encoding="UTF-8" standalone="no" ?>
<svg width="256px" height="225px" viewBox="0 0 256 225" version="1.1" xmlns="http://www.w3.org/2000/svg" xmlns:xlink="http://www.w3.org/1999/xlink" preserveAspectRatio="xMidYMid">
    <g>
        <path d="M250.862897,110.127448 C237.737379,97.5155862 172.104828,89.6424828 151.39531,87.3506207 C152.398345,84.9815172 153.252414,82.5313103 153.957517,80.0082759 C156.78069,78.7718621 159.828414,77.6215172 162.97931,76.6609655 C163.36331,77.7936552 165.171862,82.1335172 166.202483,84.1931034 C207.846069,85.3417931 209.984,53.2463448 211.677793,44.4535172 C213.334069,35.856 213.249655,27.5486897 227.533793,12.361931 C206.253241,6.16055172 175.650207,21.9735172 165.399724,45.5095172 C161.547586,44.0662069 157.687172,43.0002759 153.86869,42.3409655 C151.132138,31.3031724 136.88331,0.551724138 99.4918621,0.551724138 C52.150069,0.551724138 0.551724138,39.6077241 0.551724138,105.721931 C0.551724138,161.297103 38.4948966,210.001655 59.9326897,210.001655 C69.2948966,210.001655 77.3484138,202.990897 79.2391724,196.706207 C80.8242759,201.015172 85.6877241,214.411034 87.2849655,217.821241 C89.6457931,222.864 100.563862,227.227586 105.341793,221.994483 C111.485241,225.407448 122.757517,227.463172 128.901517,218.361379 C140.733241,220.864 151.193379,213.808552 151.421793,205.389793 C157.227586,205.079724 160.075586,196.928 158.807724,190.435862 C157.873103,185.656276 147.889655,168.505931 143.995586,162.585931 C151.704276,168.856276 171.230345,170.631172 173.601655,162.589793 C186.030345,172.345379 205.399172,167.224828 206.935172,159.291034 C222.036966,163.214897 239.358345,154.596966 236.514207,144.159448 C260.775172,142.481655 257.670069,116.66869 250.862897,110.127448 L250.862897,110.127448 Z" fill="#543729"></path>
        <path d="M183.311448,55.0758621 C188.536828,44.7084138 195.102897,33.3881379 203.396414,26.3845517 C194.268138,30.0634483 185.255724,41.0609655 179.927172,52.8154483 C177.211034,51.0891034 174.453517,49.5492414 171.672828,48.2024828 C179.106207,32.336 196.378483,19.0852414 215.413517,18.0502069 C202.663724,29.6132414 207.189517,53.6463448 196.706759,66.3691034 C193.707034,63.3561379 186.81931,57.5415172 183.311448,55.0758621 L183.311448,55.0758621 Z M175.069793,71.958069 C175.07531,71.5613793 175.223724,68.5009655 175.502345,67.104 C174.77131,66.9318621 170.22731,66.0430345 167.858207,66.0987586 C167.685517,69.0742069 169.108414,74.1362759 170.514759,77.1834483 C180.200276,76.9804138 187.196138,74.08 191.313655,71.4135172 C187.808,69.7793103 181.826207,68.3266207 177.277793,67.4576552 C176.770207,68.5075862 175.521103,71.1828966 175.069793,71.958069 L175.069793,71.958069 Z" fill="#00ACEE"></path>
        <path d="M139.080276,153.98069 L139.090207,154.027034 C137.862621,151.385379 136.558897,148.176552 135.001931,143.982345 C141.064276,152.806621 160.064552,148.255448 159.068138,140.348138 C168.368,147.345655 187.511172,139.182345 183.159172,129.370483 C192.475034,133.711448 203.107862,124.977103 200.72331,121.17131 C216.605793,124.234483 231.826207,127.287724 236.604138,128.510345 C233.430069,133.685517 226.201379,137.340138 215.304828,134.800552 C221.192828,142.821517 209.761103,152.444138 193.838345,147.144276 C197.343448,155.018483 183.166345,162.107586 167.053241,153.900138 C167.257931,161.777655 147.063724,162.68469 139.080276,153.98069 L139.080276,153.98069 Z M170.586483,114.164414 C189.020138,115.579586 219.504,118.328276 238.376276,120.969379 C237.184,114.827586 233.927172,113.073103 223.682207,110.321103 C212.663724,111.496276 184.709517,114.242207 170.586483,114.164414 L170.586483,114.164414 Z" fill="#2BAF2B"></path>
        <path d="M159.068138,140.348138 C168.368,147.345655 187.511172,139.182345 183.159172,129.370483 C192.475034,133.711448 203.107862,124.977103 200.72331,121.17131 C181.945931,117.550897 162.242207,113.917241 157.77269,113.282207 C160.483862,113.426207 164.977655,113.734069 170.586483,114.164966 C184.710069,114.242759 212.664276,111.496828 223.682207,110.321655 C205.841655,105.798069 169.416828,99.1966897 144.261517,97.5702069 C143.095724,99.273931 140.952828,102.16331 137.220414,105.233655 C126.214621,128.520276 106.273655,143.998897 84.2102069,143.998897 C77.7804138,143.998897 70.5864828,142.914207 62.5230345,140.336552 C57.4946207,145.723586 36.0551724,149.805793 18.6593103,141.26731 C32.457931,173.577379 64.457931,195.145379 99.8791724,195.145379 C129.710897,195.145379 142.939034,164.682483 140.044138,156.622345 C139.341793,154.665379 136.558345,148.176552 135.000828,143.982897 C141.064276,152.806621 160.064,148.255448 159.068138,140.348138 L159.068138,140.348138 Z" fill="#FFCC2F"></path>
        <path d="M140.989241,79.0388966 C143.623172,77.606069 152.725517,72.0888276 161.399172,70.0154483 C161.262345,69.0548966 161.159172,68.086069 161.095172,67.1117241 C155.40469,68.4744828 144.676414,73.0725517 138.528552,66.736 C151.499034,70.649931 157.975172,63.2485517 167.508414,63.2485517 C173.188966,63.2485517 181.294897,64.8353103 187.684414,67.344 C182.545103,62.5964138 165.692138,48.2681379 144.825931,48.2184828 C140.167172,53.8664828 135.131586,66.1009655 140.989241,79.0388966 L140.989241,79.0388966 Z" fill="#CECECE"></path>
        <path d="M62.5230345,140.336552 C70.5864828,142.914207 77.7804138,143.998897 84.2102069,143.998897 C106.273655,143.998897 126.214069,128.519724 137.220414,105.233655 C129.080276,112.02869 114.932966,117.842759 92.8391724,117.842759 C112.518621,113.380414 129.459862,103.573517 138.077793,89.2386207 C132.019862,79.5966897 125.449379,58.265931 142.088276,41.4030345 C139.528828,33.1801379 127.070897,11.4731034 99.4918621,11.4731034 C51.3616552,11.4731034 11.4736552,51.7473103 11.4736552,105.721379 C11.4736552,118.498207 14.0529655,130.481103 18.6598621,141.266759 C36.0551724,149.805793 57.4946207,145.723586 62.5230345,140.336552 L62.5230345,140.336552 Z" fill="#EF5734"></path>
        <path d="M76.9633103,58.1555862 C76.9633103,70.4325517 86.9158621,80.3862069 99.1933793,80.3862069 C111.470897,80.3862069 121.424552,70.4325517 121.424552,58.1555862 C121.424552,45.878069 111.470897,35.9249655 99.1933793,35.9249655 C86.9158621,35.9249655 76.9633103,45.878069 76.9633103,58.1555862 L76.9633103,58.1555862 Z" fill="#FFCC2F"></path>
        <path d="M85.8835862,58.1555862 C85.8835862,65.5056552 91.8433103,71.4648276 99.1928276,71.4648276 C106.544,71.4648276 112.502621,65.5056552 112.502621,58.1555862 C112.502621,50.8049655 106.544552,44.8457931 99.1928276,44.8457931 C91.8433103,44.8457931 85.8835862,50.8049655 85.8835862,58.1555862 L85.8835862,58.1555862 Z" fill="#543729"></path>
        <ellipse fill="#FFFFFF" cx="99.1928276" cy="52.249931" rx="7.75558621" ry="4.82206897"></ellipse>
    </g>
</svg>
